media/img/mob-icon-noun-pay.svg

<svg width="58" height="52" viewBox="0 0 58 52" fill="none" xmlns="http://www.w3.org/2000/svg">
<g clip-path="url(#clip0_623_4455)">
<path d="M55.7191 9.5275H45.4425V2.25659C45.4425 1.6784 45.2088 1.12354 44.7932 0.714243C44.377 0.305462 43.8128 0.0751953 43.2243 0.0751953H7.07131C5.20861 0.0751953 3.42208 0.803001 2.10503 2.09833C0.78789 3.39417 0.0478516 5.15107 0.0478516 6.98295V45.0825C0.0478516 46.9144 0.787903 48.6714 2.10503 49.9672C3.42216 51.2625 5.20861 51.9903 7.07131 51.9903H55.7189C56.3074 51.9903 56.8716 51.76 57.2872 51.3512C57.7034 50.942 57.937 50.3871 57.937 49.8089V11.7093C57.937 11.1306 57.7034 10.5763 57.2872 10.167C56.8716 9.75769 56.3074 9.52793 55.7189 9.52793L55.7191 9.5275ZM4.40987 6.98294C4.40987 6.30789 4.68269 5.66067 5.16797 5.18352C5.65326 4.70626 6.31131 4.43796 6.99767 4.43796H41.0067V9.52747H7.0716C6.37281 9.54725 5.69567 9.28808 5.19385 8.80829C4.69257 8.32901 4.40997 7.67069 4.40997 6.9829L4.40987 6.98294ZM43.742 35.3395C42.3692 35.3395 41.0531 34.8034 40.0825 33.849C39.1119 32.8944 38.5668 31.5997 38.5668 30.25C38.5668 28.8999 39.112 27.6056 40.0825 26.651C41.053 25.6965 42.3691 25.1605 43.742 25.1605C45.1149 25.1605 46.4309 25.6966 47.4015 26.651C48.3721 27.6055 48.9171 28.8998 48.9171 30.25C48.9171 31.5997 48.372 32.8944 47.4015 33.849C46.431 34.8035 45.1149 35.3395 43.742 35.3395Z" fill="white"/>
</g>
<defs>
<clipPath id="clip0_623_4455">
<rect width="58" height="52" fill="white"/>
</clipPath>
</defs>
</svg>

<svg width="58" height="52" viewBox="0 0 58 52" fill="none" xmlns="http://www.w3.org/2000/svg"><g clip-path="url(#clip0_623_4455)"><path d="M55.72 9.527H45.442v-7.27c0-.579-.234-1.133-.65-1.543a2.24 2.24 0 00-1.569-.639H7.071a7.086 7.086 0 00-4.966 2.023A6.852 6.852 0 00.048 6.983v38.1c0 1.831.74 3.588 2.057 4.884a7.084 7.084 0 004.966 2.023H55.72c.588 0 1.153-.23 1.568-.639.416-.409.65-.964.65-1.542v-38.1c0-.578-.234-1.133-.65-1.542-.415-.41-.98-.64-1.568-.64zM4.41 6.983c0-.675.273-1.322.758-1.8a2.61 2.61 0 011.83-.745h34.009v5.09H7.072a2.61 2.61 0 01-1.878-.72 2.525 2.525 0 01-.784-1.825zM43.742 35.34a5.22 5.22 0 01-3.66-1.491 5.048 5.048 0 01-1.515-3.599c0-1.35.545-2.644 1.516-3.599a5.219 5.219 0 013.659-1.49 5.22 5.22 0 013.66 1.49 5.047 5.047 0 011.515 3.599c0 1.35-.545 2.644-1.516 3.599a5.219 5.219 0 01-3.659 1.49z" fill="#fff"/></g><defs><clipPath id="clip0_623_4455"><path fill="#fff" d="M0 0h58v52H0z"/></clipPath></defs></svg>
